X:271
T:O Lord of Heav'n and Earth and Sea
%%stretchlast false
M:4/4
L:1/4
K:Bb clef=C1
"^I"[B,DBf]/ "^V7²"[CEAf]/ "^I¹"[DFBb] "^vii°¹"[CAea]/ "^viiø7¹"[CAeg]/ "^I¹"[DBdf]/ "^iii7"[DAcf]/ | "^IV"[EGBg]/ "^i7²"[FABf]/ "^IV¹"[GBe]/ "^IVmaj7"[EGBd]/ "^V"[FAc] "^I"[B,DB] | [B,FBd]/ "^ii"[CFBe]/ "^I¹"[DBf]/ "^iii"[Dcef]/ "^I¹"[DBdf]/ "^iii7"[DAcf]/ "^IV"[EGBg]/ "^vi²"[DGBg]/ | "^vii°¹"[Ccea]/ "^V²"[Ccfa]/ "^I¹"[DFdb] "^II7¹"[=EGcb]/ "^V/V¹"[=EGcc']/ "^V"[Fca] | "^I¹"[DFBb]/ "^Imaj7¹"[DFBa]/ "^IV"[EGBg]/ "^viiø7²"[EAcg]/ "^I¹"[DBdf] "^ii"[CGe] | "^V¹"[A,Fc] "^I"[B,FBd]/ "^Imaj7³"[A,FBd]/ "^vi"[G,GBd]/ "^IV¹"[G,GBe]/ "^I¹"[D,FBf] | "^vi"[G,DB]/ "^ii7²"[G,EBc]/ "^I²"[F,FBd] "^IVmaj7"[E,GBd] "^i"[F,CBc] | "^V"[F,CAc] "^I"[B,DB]3 |]
